<?xml version="1.0" encoding="UTF-8"?>
<map version="1.4" tiledversion="1.4.3" orientation="isometric" renderorder="right-down" width="17" height="17" tilewidth="256" tileheight="128" infinite="0" nextlayerid="2" nextobjectid="1">
  <tileset firstgid="1" name="tile_ground" tilewidth="256" tileheight="128" tilecount="1" columns="1">
    <image source="../scenes/tile_ground.png" width="256" height="128"/>
  </tileset>
  <tileset firstgid="2" name="tile_stone_road" tilewidth="256" tileheight="128" tilecount="1" columns="1">
    <image source="../scenes/tile_stone_road.png" width="256" height="128"/>
  </tileset>
  <tileset firstgid="3" name="tile_shore" tilewidth="256" tileheight="128" tilecount="1" columns="1">
    <image source="../scenes/tile_shore.png" width="256" height="128"/>
  </tileset>
  <tileset firstgid="4" name="tile_water" tilewidth="256" tileheight="128" tilecount="1" columns="1">
    <image source="../scenes/tile_water.png" width="256" height="128"/>
  </tileset>
  <layer id="1" name="Ground" width="17" height="17">
    <data encoding="csv">
      1,1,1,1,1,1,1,1,1,1,1,1,1,1,1,1,1,
      1,4,4,4,4,4,4,4,4,4,4,4,4,4,4,4,1,
      1,4,3,3,3,3,3,3,3,3,3,3,3,3,3,4,1,
      1,4,3,1,1,1,1,1,1,1,1,1,1,1,3,4,1,
      1,4,2,2,2,1,1,1,1,1,1,1,1,1,3,4,1,
      1,4,3,2,2,2,1,1,1,1,1,1,1,1,3,4,1,
      1,4,3,1,2,2,2,1,1,1,1,1,1,1,3,4,1,
      1,4,3,1,1,1,2,2,2,1,1,1,1,1,3,4,1,
      1,4,3,1,1,1,1,2,2,2,1,1,1,1,3,4,1,
      1,4,3,1,1,1,1,1,2,2,2,1,1,1,3,4,1,
      1,4,3,1,1,1,1,1,1,1,2,2,2,1,3,4,1,
      1,4,3,1,1,1,1,1,1,1,1,2,2,2,3,4,1,
      1,4,3,1,1,1,1,1,1,1,1,1,2,2,2,2,2,
      1,4,3,1,1,1,1,1,1,1,1,1,1,1,3,4,1,
      1,4,3,3,3,3,3,3,3,3,3,3,3,3,3,4,1,
      1,4,4,4,4,4,4,4,4,4,4,4,4,4,4,4,1,
      1,1,1,1,1,1,1,1,1,1,1,1,1,1,1,1,1
    </data>
  </layer>
</map>
